images/LOGO_SUMMANT/SUMMANT LOGO.svg

<svg width="157" height="23" viewBox="0 0 157 23" fill="none" xmlns="http://www.w3.org/2000/svg">
<path d="M55.744 18.7828C55.744 19.3443 55.6508 19.8697 55.4671 20.3536C55.2833 20.8375 55.022 21.2593 54.683 21.6165C54.344 21.9762 53.9273 22.2608 53.4331 22.473C52.9388 22.6878 52.3825 22.7939 51.7614 22.7939H44.3216C43.7393 22.7939 43.2011 22.693 42.7068 22.4886C42.2125 22.2841 41.7856 22.0047 41.4285 21.6449C41.0688 21.2852 40.7945 20.8634 40.6004 20.3795C40.4063 19.8956 40.3105 19.3625 40.3105 18.7802V4.59875H45.3696V17.1084C45.3696 17.921 45.7474 18.3299 46.5031 18.3299H49.4376C50.3097 18.3299 50.7444 17.9029 50.7444 17.0515V4.60134H55.744V18.7828Z" fill="black"/>
<path d="M37.2508 18.4748C37.2508 21.3551 36.0501 22.7965 33.6461 22.7965H20.4097V17.9909H32.2797V13.2318H24.1309C21.4758 13.2318 20.1483 11.8551 20.1483 9.10163V4.47972C20.1483 1.62014 21.4655 0.19165 24.0998 0.19165H36.842V4.80838H25.1479V8.80402H33.6461C36.0475 8.80402 37.2508 10.1187 37.2508 12.7479V18.4748Z" fill="black"/>
<path d="M81.7535 22.7963H76.754V10.3721C76.7152 9.53877 76.2778 9.11177 75.4472 9.09366H72.774V22.7963H67.7745V9.09366H64.9848C64.1904 9.09366 63.8126 9.49995 63.8514 10.3151V22.7963H58.7949V8.64337C58.7949 8.06111 58.8907 7.5306 59.0848 7.04408C59.2788 6.56015 59.5531 6.13833 59.9128 5.78121C60.2699 5.4215 60.6969 5.14201 61.1912 4.93757C61.6855 4.73313 62.2237 4.6322 62.8034 4.6322H77.7736C78.392 4.6322 78.951 4.7383 79.4453 4.95051C79.9395 5.16271 80.3561 5.44996 80.6951 5.80709C81.0341 6.1668 81.2955 6.59121 81.4792 7.08549C81.663 7.57977 81.7561 8.09734 81.7561 8.64079V22.7963H81.7535Z" fill="black"/>
<path d="M107.773 22.7964H102.773V10.3721C102.734 9.53879 102.297 9.1118 101.466 9.09368H98.7905V22.7964H93.791V9.09368H91.0013C90.2069 9.09368 89.8291 9.49998 89.8679 10.3151V22.7964H84.8088V8.6434C84.8088 8.06113 84.9046 7.53062 85.0987 7.0441C85.2927 6.56018 85.567 6.13836 85.9267 5.78123C86.2864 5.42152 86.7108 5.14203 87.2051 4.93759C87.6994 4.73315 88.2376 4.63223 88.8173 4.63223H103.785C104.406 4.63223 104.962 4.73833 105.457 4.95053C105.951 5.16273 106.367 5.44999 106.706 5.80711C107.045 6.16682 107.307 6.59123 107.491 7.08551C107.674 7.57979 107.767 8.09736 107.767 8.64081V22.7964H107.773Z" fill="black"/>
<path d="M110.824 16.2931C110.824 13.2317 112.092 11.6997 114.631 11.6997H121.23V9.82089C121.23 9.19981 120.919 8.89186 120.301 8.89186H111.494V4.6012H122.19C124.902 4.6012 126.258 5.93912 126.258 8.18537V18.3556C126.258 21.4585 124.902 22.7938 122.19 22.7938H114.719C112.141 22.7938 110.842 21.4559 110.824 18.78V16.2931ZM121.23 15.8428C121.23 15.3977 120.986 15.1752 120.502 15.1752H116.608C116.083 15.1752 115.824 15.39 115.824 15.8144V17.8381C115.824 18.2651 116.085 18.4773 116.608 18.4773H120.502C120.986 18.4773 121.23 18.2651 121.23 17.8381V15.8428Z" fill="black"/>
<path d="M144.758 8.61251V22.7681H139.758V10.3412C139.758 9.4898 139.323 9.0628 138.451 9.0628H135.517C134.761 9.0628 134.383 9.46909 134.383 10.2843V22.7655H129.324V8.60993C129.324 8.02766 129.42 7.49715 129.614 7.01063C129.808 6.5267 130.082 6.10488 130.442 5.74776C130.799 5.38805 131.226 5.10856 131.72 4.90412C132.215 4.69968 132.753 4.59875 133.335 4.59875H140.775C141.394 4.59875 141.952 4.70486 142.447 4.91706C142.941 5.12926 143.358 5.41652 143.697 5.77364C144.036 6.13335 144.297 6.55776 144.481 7.05204C144.664 7.55149 144.758 8.06906 144.758 8.61251Z" fill="black"/>
<path d="M151.965 22.6308C149.193 22.6308 147.809 21.3808 147.809 18.881V0H152.837V4.46405H156.819V8.9255H152.837V17.1756C152.837 17.8355 153.088 18.1641 153.592 18.1641H156.788V22.6282H151.965V22.6308Z" fill="black"/>
<path d="M5.39031 7.08032H8.61724V12.4424H14.036V15.672H8.61724V21.2592H5.39031V15.672H0V12.4424H5.39031V7.08032Z" fill="url(#paint0_linear_1_1466)"/>
<defs>
<linearGradient id="paint0_linear_1_1466" x1="0" y1="21.2595" x2="14.036" y2="21.2595" gradientUnits="userSpaceOnUse">
<stop stop-color="#1723FF"/>
<stop offset="1" stop-color="#30E35E"/>
</linearGradient>
</defs>
</svg>

<svg xmlns="http://www.w3.org/2000/svg" width="157" height="23" fill="none"><path fill="#000" d="M55.744 18.783c0 .561-.093 1.087-.277 1.57a3.744 3.744 0 0 1-.784 1.263c-.339.36-.756.645-1.25.857-.494.215-1.05.32-1.672.32h-7.44c-.582 0-1.12-.1-1.614-.304a3.849 3.849 0 0 1-1.279-.844 3.729 3.729 0 0 1-.828-1.265 4.258 4.258 0 0 1-.29-1.6V4.6h5.06v12.51c0 .812.377 1.22 1.133 1.22h2.935c.872 0 1.306-.426 1.306-1.277V4.602h5v14.18ZM37.25 18.475c0 2.88-1.2 4.322-3.604 4.322H20.41V17.99h11.87v-4.76h-8.15c-2.654 0-3.982-1.376-3.982-4.13V4.48c0-2.86 1.317-4.288 3.952-4.288h12.742v4.616H25.148v3.996h8.498c2.401 0 3.605 1.315 3.605 3.944v5.727ZM81.754 22.796h-5V10.372c-.039-.833-.476-1.26-1.307-1.278h-2.673v13.702h-5V9.094h-2.79c-.794 0-1.171.406-1.133 1.221v12.481h-5.056V8.643c0-.582.096-1.112.29-1.599.194-.484.468-.906.828-1.263a3.85 3.85 0 0 1 1.278-.843 4.18 4.18 0 0 1 1.612-.306h14.97c.619 0 1.178.106 1.672.319.495.212.911.499 1.25.856.34.36.6.784.784 1.278.184.495.277 1.012.277 1.556v14.155h-.002ZM107.773 22.796h-5V10.372c-.039-.833-.476-1.26-1.307-1.278h-2.675v13.702h-5V9.094h-2.79c-.794 0-1.172.406-1.133 1.221v12.481h-5.06V8.643c0-.582.097-1.112.29-1.599.195-.484.469-.906.829-1.263.36-.36.784-.639 1.278-.843a4.18 4.18 0 0 1 1.612-.306h14.968c.621 0 1.177.106 1.672.319.494.212.91.499 1.249.856.339.36.601.784.785 1.279a4.44 4.44 0 0 1 .276 1.555v14.155h.006ZM110.824 16.293c0-3.061 1.268-4.593 3.807-4.593h6.599V9.82c0-.62-.311-.928-.929-.928h-8.807v-4.29h10.696c2.712 0 4.068 1.337 4.068 3.583v10.17c0 3.104-1.356 4.439-4.068 4.439h-7.471c-2.578 0-3.877-1.338-3.895-4.014v-2.487Zm10.406-.45c0-.445-.244-.668-.728-.668h-3.894c-.525 0-.784.215-.784.64v2.023c0 .427.261.64.784.64h3.894c.484 0 .728-.213.728-.64v-1.995ZM144.758 8.613v14.155h-5V10.341c0-.851-.435-1.278-1.307-1.278h-2.934c-.756 0-1.134.406-1.134 1.221v12.481h-5.059V8.61c0-.582.096-1.113.29-1.6.194-.483.468-.905.828-1.262a3.85 3.85 0 0 1 1.278-.844 4.188 4.188 0 0 1 1.615-.305h7.44c.619 0 1.177.106 1.672.318.494.212.911.5 1.25.857.339.36.6.784.784 1.278.183.5.277 1.017.277 1.56ZM151.965 22.63c-2.772 0-4.156-1.25-4.156-3.749V0h5.028v4.464h3.982v4.461h-3.982v8.25c0 .66.251.99.755.99h3.196v4.463h-4.823v.003Z"/><path fill="url(#a)" d="M5.39 7.08h3.227v5.362h5.419v3.23H8.617v5.587H5.39v-5.587H0v-3.23h5.39V7.08Z"/><defs><linearGradient id="a" x1="0" x2="14.036" y1="21.259" y2="21.259" gradientUnits="userSpaceOnUse"><stop stop-color="#1723FF"/><stop offset="1" stop-color="#30E35E"/></linearGradient></defs></svg>
